X:126
T:Chances, The
M:9/8
L:1/8
B:Thompson's Compleat Collection of 200 Favourite Country Dances, vol. 1 (London, 1757)
Z:Transcribed and edited by Flynn Titford-Mock, 2007
Z:abc's:AK/Fiddler's Companion
K:G
c|"tr"B2G Bcd efg|"tr"B2G Bcd cAF|B2G Bcd efg|1 [G,2G2] g (f/g/a)f g2:|2 [G,2G2] g (f/g/a)f g3||
[G,2G2] g (f/g/af gdB|[G,2G2] g faf bge|[G,2G2] g (f/g/a)f gdB|ecA dBG AFD:|

